**kern	**kern	**kern
*staff2	*staff2	*staff1
*clefG2	*clefG2	*clefG2
*k[]	*k[]	*k[]
*M3/4	*M3/4	*M3/4
=1-	=1-	=1-
4r	4r	[4ee
4c	4g	8.ee]L
.	.	16ffJk
4f	4g	8.ddL
.	.	16eeJk
=2	=2	=2
4e	4g	4cc
4r	4r	4gg
4r	4r	4gg
=3	=3	=3
(2B	([2.g	(8ggL
.	.	8ff)J
.	.	(8ffL
.	.	8ee)J
4c	.	(8eeL
.	.	8dd)J
=4	=4	=4
4G)	4g])	4dd
4r	4r	4b
4r	4r	4g
=5	=5	=5
4r	4r	[4ee
4c	4g	8.ee]L
.	.	16ffJk
4f	4g	8.ddL
.	.	16eeJk
=6	=6	=6
4e	4g	4cc
4r	4r	4ccc
4E	4c	4ccc
=7	=7	=7
4f	4c	16gg#LL
.	.	16aaJJ
.	.	8r
4r	4r	16eeLL
.	.	16ffJJ
.	.	8r
4Gn	4f	16ddLL
.	.	16bJJ
.	.	8r
=8	=8	=8
4c	4e	4cc
4r	4r	4r
4r	4r	4r
=:|!	=:|!	=:|!
*-	*-	*-
